X:1
T:Das ander heilig Sacrament
T:André Vierendeels
T:Melody by Georg Vogler (1625) (sorprano voice)
T:Source : Catechismus---Würzburg---J.Volmari---1652. Editor : André Vierendeels (02/09/17)
T:Notes : Original Clef : C1, other voices supplied editorially Original note values have been halved Text Middle German  
T:Das ander heilig Sacrament
T:©
T:©
C:André Vierendeels
Z:©
%%score [ 1 2 3 ]
L:1/8
Q:1/4=80
M:2/2
K:C
V:1 treble nm="Soprano" snm="S"
V:2 treble-8 nm="Tenor" snm="T"
V:3 bass nm="Bass" snm="B"
V:1
"^1)" A4 A2 E2 | G2 F2 D4 | E4 D4 | z4 D4 | A2 B2 G2 A2 | c4 B4 | A4 z4 | A4 c2 B2 | A2 B2 c2 d2 | %9
w: Das an- der|hei- lig Sa-|cra- ment|der|Fir- mung all- zeit|war ge-|nennt:|in wel- chem|der ge- tauff- te|
w: Sein Ma- tern|der Ehrn- *|sam ist,|nutz|Oel und Bal- sam|ein- ge-|mischt:|vom Bi- schoff|herz- lich con- se-|
 A4 z4 | d4 d2 c2 | B4 A2 G2 | F4 E4 | z4 d4 | d2 c2 B4 | A2 G2 F4 | E4 z4 | F4 c2 B2 | c2 G2 F4 | %19
w: Christ|durch Got- es|Geist nur stär-|cker ist|und|al- er- erst|an- fangt zu|seyn|ein Riegs- mann|in Christ- li-|
w: crirt,|be- deut Gött-|li- ches Geis-|tes Ziert|so|den Ge- firmb-|ten wird ge-|leist|durch inn- wohn-|nen- den Gna-|
 E4 !fermata!D4 |] %20
w: cher Gmein.|
w: den Geist.|
V:2
"^2)""^1)" F4 d2 A2 | G2 A2 G4 | c4 A4 | z4 A4 | c2 B2 c2 A2 | G4 D4 | F4 z4 | c4 e2 g2 | %8
w: Das an- der|hei- lig Sa-|cra- ment|der|Fir- mung all- zeit|war ge|nennt:|in wel- chem|
w: Das Oel zwar,|so flüs- sig|und feist|be|deu- tet Je- su|Chri- sti|Geist:|ü- ber desz|
 c2 B2 e2 B2 | c4 z4 | A4 B2 G2 | d4 d2 G2 | A4 c4 | z4 B4 | A2 A2 G4 | A2 B2 c4 | A4 z4 | %17
w: der ge- tauff- te|Christ|durch Got- tes|Geist nur stär-|cker ist|und|al- ler- erst|an- fangt zu|seyn|
w: Bal- sams Lieb- lig-|keit,|der glau- bi-|gen Voll- kom-|men- heit,|wel-|che so wol|Gott als der|Welt|
 A4 e2 d2 | A2 E2 A4 | G4 !fermata!A4 |] %20
w: ein Riegs- mann|in Christ- li-|cher Gmein.|
w: ausz Krafft disz|Sa- cra- ments|ge- felt.|
V:3
"^3)""^1)""^4)" D,4 F,2 C,2 | B,,2 D,2 B,,4 | A,,4 D,4 | z4 F,4 | E,2 D,2 E,2 F,2 | E,4 G,4 | %6
w: Das an- der|hei- lig Sa-|cra- ment|der|Fir- mung all- zeit|war ge-|
w: Die Form: ich|be- zei- chne|dich mit|dem|Zei- chen desz Creutz's:-|firm dich|
 D,4 z4 | A,4 A,2 G,2 | E,2 G,2 A,2 G,2 | F,4 z4 | D,4 G,2 E,2 | G,4 D,2 C,2 | D,4 A,4 | z4 G,4 | %14
w: nennt:|in wel- chem|der ge- tauff- te|Christ|durch Got- tes|Geist nur stär-|cher ist|und|
w: mit|dem heyl- wer-|di gen Ehrn- sam,|im|Nah- men desz|Vat- ters, und|desz Sohns|und|
 D,2 F,2 G,4 | F,2 E,2 F,4 | A,4 z4 | D,4 C,2 G,2 | E,2 C,2 F,4 | C,4 !fermata!D,4 |] %20
w: al- ler- esrt|an- fangt zu|seyn|ein Riegs- mann|in Christ- li-|che Gmein.|
w: desz heil- gen|Gei- stes. A-|men,|All drey Per-|sohn würck'n zu-|sam- men.|

